Newaita/actions/22/format-border-set-left.svg

<svg height="22" viewBox="0 0 22 22" width="22" xmlns="http://www.w3.org/2000/svg"><g fill="#424242"><path d="m20.011719 18.363281v-14.554687c0-1.003906-.816407-1.816406-1.820313-1.816406h-14.554687c-1.003907 0-1.816407.8125-1.816407 1.816406v14.554687c0 1.003907.8125 1.820313 1.816407 1.820313h14.554687c1.003906 0 1.820313-.816406 1.820313-1.820313zm0 0" fill-opacity=".392157"/><path d="m11.371094 20.183594v-18.191406h-.910156v18.191406zm0 0"/><path d="m20.011719 10.582031h-18.191407v.960938h18.191407zm0 0"/></g><path d="m3.636719 20.183594c-1.007813 0-1.816407-.8125-1.816407-1.820313v-14.554687c0-1.007813.808594-1.816406 1.816407-1.816406zm0 0" fill="#7e57c2"/></svg>

<?xml version="1.0" encoding="UTF-8"?>
<svg xmlns="http://www.w3.org/2000/svg" xmlns:xlink="http://www.w3.org/1999/xlink" width="22px" height="22px" viewBox="0 0 22 22" version="1.1">
<g id="surface1">
<path style=" stroke:none;fill-rule:nonzero;fill:rgb(25.882354%,25.882354%,25.882354%);fill-opacity:0.392157;" d="M 20.011719 18.363281 L 20.011719 3.808594 C 20.011719 2.804688 19.195312 1.992188 18.191406 1.992188 L 3.636719 1.992188 C 2.632812 1.992188 1.820312 2.804688 1.820312 3.808594 L 1.820312 18.363281 C 1.820312 19.367188 2.632812 20.183594 3.636719 20.183594 L 18.191406 20.183594 C 19.195312 20.183594 20.011719 19.367188 20.011719 18.363281 Z M 20.011719 18.363281 "/>
<path style=" stroke:none;fill-rule:nonzero;fill:rgb(25.882354%,25.882354%,25.882354%);fill-opacity:1;" d="M 11.371094 20.183594 L 11.371094 1.992188 L 10.460938 1.992188 L 10.460938 20.183594 Z M 11.371094 20.183594 "/>
<path style=" stroke:none;fill-rule:nonzero;fill:rgb(25.882354%,25.882354%,25.882354%);fill-opacity:1;" d="M 20.011719 10.582031 L 1.820312 10.582031 L 1.820312 11.542969 L 20.011719 11.542969 Z M 20.011719 10.582031 "/>
<path style=" stroke:none;fill-rule:nonzero;fill:rgb(49.411765%,34.117648%,76.078433%);fill-opacity:1;" d="M 3.636719 20.183594 C 2.628906 20.183594 1.820312 19.371094 1.820312 18.363281 L 1.820312 3.808594 C 1.820312 2.800781 2.628906 1.992188 3.636719 1.992188 Z M 3.636719 20.183594 "/>
</g>
</svg>
